X: 3371
T: RAKES OF MALLOW
%R: march, reel
B: James Kerr "Merry Melodies" v.3 p.41 #371
Z: 2016 John Chambers <jc:trillian.mit.edu>
M: 2/4
L: 1/16
K: G
|:\
G2B2G2B2 | G2B2 cBAG | F2A2F2A2 | F2A2 dcBA |\
G2B2G2B2 | G2B2d3B | cBAG FGAc | B2G2G2z2 :|
|:\
g2fe d2c2 | B2c2 d4 | g2fe d2c2 | B2g2 A4 |\
g2fe d2c2 | B2c2 d4 | cBAG FGAc | B2G2G2z2 :|

%%sep 1 1 500
%%sep 1 1 500

